images/favicon.svg

<svg width="256" height="256" fill="none" xmlns="http://www.w3.org/2000/svg"><path d="M81 0v28H28v53H0V0h81ZM256 81V0h-81v28h53v53h28ZM175 256h81v-81h-28v53h-53v28ZM0 175v81h81v-28H28v-53H0Z" fill="#FF0070"/><path fill-rule="evenodd" clip-rule="evenodd" d="M128 74c-29.823 0-54 24.177-54 54s24.177 54 54 54 54-24.177 54-54-24.177-54-54-54Zm-26 54c0-14.359 11.641-26 26-26s26 11.641 26 26-11.641 26-26 26-26-11.641-26-26Z" fill="#FF0070"/></svg>

<svg width="256" height="256" viewBox="0 0 256 256" fill="none" xmlns="http://www.w3.org/2000/svg">
<path d="M81 0V28H28L28 81H0V0H81Z" fill="#FF0070"/>
<path d="M256 81V0H175V28L228 28V81H256Z" fill="#FF0070"/>
<path d="M175 256H256V175H228L228 228L175 228V256Z" fill="#FF0070"/>
<path d="M1.06219e-05 175L0 256H81V228L28 228L28 175H1.06219e-05Z" fill="#FF0070"/>
<path fill-rule="evenodd" clip-rule="evenodd" d="M128 74C98.1766 74 74 98.1766 74 128C74 157.823 98.1766 182 128 182C157.823 182 182 157.823 182 128C182 98.1766 157.823 74 128 74ZM102 128C102 113.641 113.641 102 128 102C142.359 102 154 113.641 154 128C154 142.359 142.359 154 128 154C113.641 154 102 142.359 102 128Z" fill="#FF0070"/>
</svg>
